X:1
T:Gazaremsan
R:Polska
O:Gstrikland
S:efter Lrsk-Olle
N:Frn Stenstra Sandviken
M:3/4
L:1/8
K:F
AB/2_d/2=d/2_d/2 =d/2e/2f/2e/2f/2g/2| \
a3/2g/2e fd_d| \
AB/2_d/2=d/2_d/2 =d/2e/2f/2e/2f/2a/2| \
gff ee2:|:
K:D
Add _d_d=B| \
=B3/2A/2G/2_G/2 =G/2=B/2A_G| \
=D3/2E/2_G2_G2| \
E3/2D/2_D/2=D/2 E/2_G/2D2-|
Dd2 _d_d=B| \
=B3/2A/2=G/2_G/2 =G/2=B/2A2| \
A_B/2_d/2=d/2_d/2 =d/2e/2f/2e/2f/2g/2| \
a_d=d4:|
